!!!OTL: O SANCTISSIMA O PIISSIMA
!!!ARE: Europa, Mitteleuropa, Deutschland
!!!SCT: B0747A
!!!YEM: Copyright 1995, estate of Helmut Schaffrath.
**kern
*ICvox
*Ivox
*M2/4
*k[b-]
*F:
=1
{4cc
4dd
=2
8.cc
16b-
8a
8b-}
=3
{4cc
4dd
=4
8.cc
16b-
4a}
=5
{4cc
4cc
=6
4dd
8ee
8ff
=7
4ee
4dd
=8
2cc}
=9
{8.g
16a
8g
8a
=10
8.b-
16cc
4b-}
=11
{8.a
16b-
8a
8b-
=12
8.cc
16dd
4cc}
=13
{8ff
8ee
8dd
8cc
=14
8ff
8dd
8cc
8b-
=15
4a
4g
=16
2f}
==
!!!AGN: Marien - Lied, religioes
!!!ONB: ESAC (Essen Associative Code) Database: BOEHME
!!!AMT: simple duple
!!!AIN: vox
!!!EED: Helmut Schaffrath
!!!EEV: 1.0
*-
